markets/ENA.svg

<svg width="42" height="42" viewBox="0 0 42 42" fill="none" xmlns="http://www.w3.org/2000/svg">
<g clip-path="url(#clip0_8362_2956)">
<path d="M20.9566 0H20.9565C9.38254 0 0 9.38254 0 20.9565V20.9572C0 32.5312 9.38254 41.9137 20.9565 41.9137H20.9566C32.5306 41.9137 41.9131 32.5312 41.9131 20.9572V20.9565C41.9131 9.38254 32.5306 0 20.9566 0Z" fill="black"/>
<path fill-rule="evenodd" clip-rule="evenodd" d="M16.3708 11.1714H15.9142L15.6182 11.5191L8.1436 20.2985L7.59802 20.9393L8.1436 21.5801L15.6182 30.3596L15.9142 30.7073H16.3708H29.8276H30.8161V29.7187V24.1374H28.8391V28.7301H18.5327L24.7115 21.586L25.2708 20.9393L24.7115 20.2927L18.5327 13.1485H28.8391V17.7412H30.8161V12.1599V11.1714H29.8276H16.3708ZM16.3766 13.6779L10.1946 20.9393L16.3766 28.2006L22.6569 20.9393L16.3766 13.6779Z" fill="white"/>
</g>
<defs>
<clipPath id="clip0_8362_2956">
<rect width="42" height="42" fill="white"/>
</clipPath>
</defs>
</svg>

<svg width="42" height="42" fill="none" viewBox="0 0 42 42" xmlns="http://www.w3.org/2000/svg">
  <g clip-path="url(#a)">
    <path fill="#000" d="M20.957 0C9.382 0 0 9.383 0 20.957s9.383 20.957 20.957 20.957 20.956-9.383 20.956-20.957S32.531 0 20.957 0"/>
    <path fill="#fff" fill-rule="evenodd" d="M16.37 11.171h-.456l-.296.348-7.474 8.78-.546.64.546.641 7.474 8.78.296.347h14.902v-6.57H28.84v4.593H18.533l6.179-7.144.559-.647-.56-.646-6.178-7.144h10.306v4.592h1.977v-6.57zm.007 2.507-6.182 7.261 6.182 7.262 6.28-7.262z" clip-rule="evenodd"/>
  </g>
  <defs>
    <clipPath id="a">
      <path fill="#fff" d="M0 0h42v42H0z"/>
    </clipPath>
  </defs>
</svg>
